dist/assets/img/check.svg

<svg width="9" height="5" viewBox="0 0 9 5" fill="none" xmlns="http://www.w3.org/2000/svg">
<path fill-rule="evenodd" clip-rule="evenodd" d="M8.24794 1.43198C8.43709 1.23025 8.43572 0.904622 8.24492 0.704678C8.05412 0.504734 7.74608 0.506185 7.55693 0.707918L6.32908 2.01756C5.83143 2.54835 5.48662 2.91503 5.19382 3.16361C4.90869 3.40567 4.72044 3.49315 4.5476 3.51644C4.44224 3.53065 4.33562 3.53065 4.23025 3.51644C4.05741 3.49315 3.86916 3.40567 3.58403 3.16361C3.29124 2.91503 2.94642 2.54835 2.44878 2.01756L1.22094 0.707918C1.0318 0.506185 0.723779 0.504734 0.532949 0.704678C0.34211 0.904622 0.340738 1.23025 0.529875 1.43198L1.75772 2.74161L1.77839 2.76366C2.25042 3.26716 2.63379 3.67607 2.97479 3.96558C3.32844 4.26582 3.68334 4.47965 4.10723 4.53676C4.29429 4.56196 4.48357 4.56196 4.67062 4.53676C5.09451 4.47965 5.44941 4.26582 5.80306 3.96558C6.14403 3.67611 6.52734 3.26725 6.99931 2.76383L7.02014 2.74161L8.24794 1.43198Z" fill="white"/>
</svg>

<svg width="9" height="5" fill="none" xmlns="http://www.w3.org/2000/svg"><path fill-rule="evenodd" clip-rule="evenodd" d="M8.248 1.432a.535.535 0 0 0-.003-.727.468.468 0 0 0-.688.003l-1.228 1.31c-.498.53-.842.897-1.135 1.146-.285.242-.474.33-.646.352a1.187 1.187 0 0 1-.318 0c-.173-.023-.36-.11-.646-.352-.293-.249-.638-.616-1.135-1.146L1.22.708A.468.468 0 0 0 .533.705a.535.535 0 0 0-.003.727l1.228 1.31.02.022c.472.503.856.912 1.197 1.202.353.3.708.514 1.132.57.187.026.377.026.564 0 .424-.056.778-.27 1.132-.57.341-.29.724-.699 1.196-1.202l.021-.022 1.228-1.31Z" fill="#fff"/></svg>
